TH1/docu_draw_bar.svg

<svg xmlns="http://www.w3.org/2000/svg" viewBox="0 0 1200 800" preserveAspectRatio="none" width="1200" height="800">
 <path d="M0,0H1200V800H0Z" style="fill: white;"></path>
 <g>
  <g transform="translate(120,80)">
   <path d="M0,0H960V640H0Z" style="fill: white; stroke: black; stroke-width: 1;"></path>
   <g>
    <path d="M0,0v640M120,0v640M240,0v640M360,0v640M480,0v640M600,0v640M720,0v640M840,0v640M960,0v640" style="stroke: black; stroke-width: 1; stroke-dasharray: 1,2;"></path>
    <path d="M0,640h960M0,576h960M0,512h960M0,448h960M0,384h960M0,320h960M0,256h960M0,192h960M0,128h960M0,64h960M0,0h960" style="stroke: black; stroke-width: 1; stroke-dasharray: 1,2;"></path>
   </g>
   <svg x="0" y="0" overflow="hidden" width="960" height="640" viewBox="0 0 960 640">
    <g>
     <path d="M12,272h48v368h-48zM132,531h48v109h-48zM252,379h48v261h-48zM372,314h48v326h-48zM492,315h48v325h-48zM612,428h48v212h-48zM732,403h48v237h-48zM852,472h48v168h-48z" style="fill: blue;"></path>
    </g>
    <g>
     <path d="M60,255h48v385h-48zM180,513h48v127h-48zM300,362h48v278h-48zM420,296h48v344h-48zM540,298h48v342h-48zM660,411h48v229h-48zM780,385h48v255h-48zM900,454h48v186h-48z" style="fill: #7d99d1;"></path>
    </g>
   </svg>
   <g>
    <g transform="translate(0,640)">
     <path d="M0,0h960M0,-24v24m120,-24v24m120,-24v24m120,-24v24m120,-24v24m120,-24v24m120,-24v24m120,-24v24m120,-12v12" style="stroke: black; stroke-width: 1;"></path>
     <g font-family="Arial" font-size="28" space="preserve" fill="black" text-anchor="middle">
      <text dy=".8em" transform="translate(60,6)">
       8
      </text>
      <text dy=".8em" transform="translate(180,6)">
       32
      </text>
      <text dy=".8em" transform="translate(300,6)">
       128
      </text>
      <text dy=".8em" transform="translate(420,6)">
       512
      </text>
      <text dy=".8em" transform="translate(540,6)">
       2048
      </text>
      <text dy=".8em" transform="translate(660,6)">
       8192
      </text>
      <text dy=".8em" transform="translate(780,6)">
       32768
      </text>
      <text dy=".8em" transform="translate(900,6)">
       131072
      </text>
     </g>
    </g>
    <g>
     <path d="M0,0v640M36,640h-36m18,-13h-18m18,-13h-18m18,-12h-18m18,-13h-18m36,-13h-36m18,-13h-18m18,-13h-18m18,-12h-18m18,-13h-18m36,-13h-36m18,-13h-18m18,-13h-18m18,-12h-18m18,-13h-18m36,-13h-36m18,-13h-18m18,-13h-18m18,-12h-18m18,-13h-18m36,-13h-36m18,-13h-18m18,-13h-18m18,-12h-18m18,-13h-18m36,-13h-36m18,-13h-18m18,-13h-18m18,-12h-18m18,-13h-18m36,-13h-36m18,-13h-18m18,-13h-18m18,-12h-18m18,-13h-18m36,-13h-36m18,-13h-18m18,-13h-18m18,-12h-18m18,-13h-18m36,-13h-36m18,-13h-18m18,-13h-18m18,-12h-18m18,-13h-18m36,-13h-36m18,-13h-18m18,-13h-18m18,-12h-18m18,-13h-18m36,-13h-36" style="stroke: black; stroke-width: 1;"></path>
     <g font-family="Arial" font-size="28" space="preserve" fill="black" text-anchor="end">
      <text dy=".4em" transform="translate(-4,640)">
       -5
      </text>
      <text dy=".4em" transform="translate(-4,576)">
       -4
      </text>
      <text dy=".4em" transform="translate(-4,512)">
       -3
      </text>
      <text dy=".4em" transform="translate(-4,448)">
       -2
      </text>
      <text dy=".4em" transform="translate(-4,384)">
       -1
      </text>
      <text dy=".4em" transform="translate(-4,320)">
       0
      </text>
      <text dy=".4em" transform="translate(-4,256)">
       1
      </text>
      <text dy=".4em" transform="translate(-4,192)">
       2
      </text>
      <text dy=".4em" transform="translate(-4,128)">
       3
      </text>
      <text dy=".4em" transform="translate(-4,64)">
       4
      </text>
      <text dy=".4em" transform="translate(-4)">
       5
      </text>
     </g>
    </g>
   </g>
  </g>
  <g transform="translate(425,4)" font-family="Arial" font-size="36" space="preserve">
   <text fill="black" text-anchor="middle" dy=".4em" transform="translate(175,26)">
    Option B example
   </text>
  </g>
 </g>
</svg>

<svg xmlns="http://www.w3.org/2000/svg" viewBox="0 0 1200 800" preserveAspectRatio="none" width="1200" height="800">
 <path d="M0,0H1200V800H0Z" style="fill: white;"></path>
 <g>
  <g transform="translate(120,80)">
   <path d="M0,0H960V640H0Z" style="fill: white; stroke: black; stroke-width: 1;"></path>
   <g>
    <path d="M0,0v640M120,0v640M240,0v640M360,0v640M480,0v640M600,0v640M720,0v640M840,0v640M960,0v640" style="stroke: black; stroke-width: 1; stroke-dasharray: 1,2;"></path>
    <path d="M0,640h960M0,576h960M0,512h960M0,448h960M0,384h960M0,320h960M0,256h960M0,192h960M0,128h960M0,64h960M0,0h960" style="stroke: black; stroke-width: 1; stroke-dasharray: 1,2;"></path>
   </g>
   <svg x="0" y="0" overflow="hidden" width="960" height="640" viewBox="0 0 960 640">
    <g>
     <path d="M12,272h48v368h-48zM132,531h48v109h-48zM252,379h48v261h-48zM372,314h48v326h-48zM492,315h48v325h-48zM612,428h48v212h-48zM732,403h48v237h-48zM852,472h48v168h-48z" style="fill: blue;"></path>
    </g>
    <g>
     <path d="M60,255h48v385h-48zM180,513h48v127h-48zM300,362h48v278h-48zM420,296h48v344h-48zM540,298h48v342h-48zM660,411h48v229h-48zM780,385h48v255h-48zM900,454h48v186h-48z" style="fill: #7d99d1;"></path>
    </g>
   </svg>
   <g>
    <g transform="translate(0,640)">
     <path d="M0,0h960M0,-24V0M120,-24V0M240,-24V0M360,-24V0M480,-24V0M600,-24V0M720,-24V0M840,-24V0M960,-12V0" style="stroke: black; stroke-width: 1;"></path>
     <g font-family="Arial" font-size="28" space="preserve" fill="black" text-anchor="middle">
      <text dy=".8em" transform="translate(60,6)">
       8
      </text>
      <text dy=".8em" transform="translate(180,6)">
       32
      </text>
      <text dy=".8em" transform="translate(300,6)">
       128
      </text>
      <text dy=".8em" transform="translate(420,6)">
       512
      </text>
      <text dy=".8em" transform="translate(540,6)">
       2048
      </text>
      <text dy=".8em" transform="translate(660,6)">
       8192
      </text>
      <text dy=".8em" transform="translate(780,6)">
       32768
      </text>
      <text dy=".8em" transform="translate(900,6)">
       131072
      </text>
     </g>
    </g>
    <g>
     <path d="M0,0v640M36,640H0M18,627H0M18,614H0M18,602H0M18,589H0M36,576H0M18,563H0M18,550H0M18,538H0M18,525H0M36,512H0M18,499H0M18,486H0M18,474H0M18,461H0M36,448H0M18,435H0M18,422H0M18,410H0M18,397H0M36,384H0M18,371H0M18,358H0M18,346H0M18,333H0M36,320H0M18,307H0M18,294H0M18,282H0M18,269H0M36,256H0M18,243H0M18,230H0M18,218H0M18,205H0M36,192H0M18,179H0M18,166H0M18,154H0M18,141H0M36,128H0M18,115H0M18,102H0M18,90H0M18,77H0M36,64H0M18,51H0M18,38H0M18,26H0M18,13H0M36,0H0" style="stroke: black; stroke-width: 1;"></path>
     <g font-family="Arial" font-size="28" space="preserve" fill="black" text-anchor="end">
      <text dy=".4em" transform="translate(-4,640)">
       -5
      </text>
      <text dy=".4em" transform="translate(-4,576)">
       -4
      </text>
      <text dy=".4em" transform="translate(-4,512)">
       -3
      </text>
      <text dy=".4em" transform="translate(-4,448)">
       -2
      </text>
      <text dy=".4em" transform="translate(-4,384)">
       -1
      </text>
      <text dy=".4em" transform="translate(-4,320)">
       0
      </text>
      <text dy=".4em" transform="translate(-4,256)">
       1
      </text>
      <text dy=".4em" transform="translate(-4,192)">
       2
      </text>
      <text dy=".4em" transform="translate(-4,128)">
       3
      </text>
      <text dy=".4em" transform="translate(-4,64)">
       4
      </text>
      <text dy=".4em" transform="translate(-4)">
       5
      </text>
     </g>
    </g>
   </g>
  </g>
  <g transform="translate(425,4)" font-family="Arial" font-size="36" space="preserve">
   <text fill="black" text-anchor="middle" dy=".4em" transform="translate(175,26)">
    Option B example
   </text>
  </g>
 </g>
</svg>
